assets/icons/24px/stroke/dpad-24px.svg

<svg width="24" height="24" viewBox="0 0 24 24" fill="none" xmlns="http://www.w3.org/2000/svg">
<path fill-rule="evenodd" clip-rule="evenodd" d="M18.5839 15.5001C18.5562 15.5001 18.5283 15.5 18.5 15.5L17.717 15.5C17.709 15.5 17.7009 15.5 17.693 15.5C17.5743 15.5001 17.4698 15.5001 17.3643 15.4927C16.9449 15.4634 16.5362 15.3462 16.165 15.1488C16.0716 15.0991 15.983 15.0437 15.8824 14.9808C15.8757 14.9766 15.8689 14.9723 15.862 14.968C15.8237 14.944 15.7857 14.9204 15.7483 14.8971C15.2658 14.5962 14.8631 14.3451 14.5974 14.0649C13.4991 12.9074 13.4991 11.0927 14.5974 9.93512C14.8631 9.65501 15.2658 9.40389 15.7483 9.10302C15.7857 9.07967 15.8237 9.05602 15.862 9.03204C15.8689 9.02776 15.8757 9.02352 15.8824 9.0193C15.983 8.95639 16.0717 8.90095 16.165 8.85131C16.5362 8.65387 16.9449 8.53668 17.3643 8.50734C17.4698 8.49997 17.5743 8.5 17.693 8.50003C17.7009 8.50003 17.7089 8.50003 17.717 8.50003L18.5 8.50003C18.5283 8.50003 18.5562 8.50001 18.5839 8.49999C18.9646 8.49969 19.2925 8.49943 19.5853 8.55768C20.7754 8.7944 21.7057 9.72469 21.9424 10.9148C22.0006 11.2076 22.0004 11.5355 22.0001 11.9162C22.0001 11.9438 22 11.9718 22 12C22 12.0283 22.0001 12.0562 22.0001 12.0839C22.0004 12.4646 22.0006 12.7925 21.9424 13.0853C21.7057 14.2754 20.7754 15.2057 19.5853 15.4424C19.2925 15.5006 18.9646 15.5004 18.5839 15.5001ZM18.5 13.5C19.0126 13.5 19.1229 13.4952 19.1951 13.4808C19.5918 13.4019 19.9019 13.0918 19.9808 12.6951C19.9952 12.6229 20 12.5126 20 12C20 11.4874 19.9952 11.3772 19.9808 11.3049C19.9019 10.9083 19.5918 10.5982 19.1951 10.5192C19.1229 10.5049 19.0126 10.5 18.5 10.5L17.717 10.5C17.5614 10.5 17.5307 10.5006 17.5039 10.5025C17.364 10.5123 17.2278 10.5513 17.1041 10.6171C17.0803 10.6298 17.054 10.6455 16.922 10.728C16.2627 11.1401 16.112 11.2445 16.0482 11.3117C15.6821 11.6976 15.6821 12.3025 16.0482 12.6883C16.112 12.7556 16.2627 12.86 16.922 13.272C17.054 13.3545 17.0803 13.3703 17.1041 13.3829C17.2278 13.4488 17.364 13.4878 17.5039 13.4976C17.5307 13.4995 17.5614 13.5 17.717 13.5L18.5 13.5Z" fill="white"/>
<path fill-rule="evenodd" clip-rule="evenodd" d="M15.5001 5.4162C15.5001 5.44388 15.5 5.47184 15.5 5.50009L15.5 6.2831C15.5 6.29117 15.5 6.29918 15.5 6.30713C15.5001 6.42579 15.5001 6.53034 15.4927 6.6358C15.4634 7.05526 15.3462 7.46387 15.1488 7.83513C15.0991 7.92847 15.0437 8.01711 14.9808 8.11771C14.9766 8.12445 14.9723 8.13124 14.968 8.13809C14.944 8.17647 14.9204 8.21439 14.897 8.25183C14.5962 8.7343 14.3451 9.13698 14.0649 9.40276C12.9074 10.5011 11.0927 10.5011 9.93512 9.40276C9.65501 9.13698 9.40389 8.7343 9.10302 8.25183C9.07967 8.21439 9.05602 8.17647 9.03204 8.13809C9.02776 8.13124 9.02351 8.12445 9.0193 8.11772C8.95638 8.01711 8.90095 7.92847 8.85131 7.83513C8.65387 7.46387 8.53668 7.05526 8.50734 6.6358C8.49997 6.53033 8.5 6.42578 8.50003 6.30711C8.50003 6.29917 8.50003 6.29117 8.50003 6.2831L8.50003 5.50009C8.50003 5.47184 8.50001 5.44389 8.49999 5.41621C8.49969 5.03551 8.49943 4.70767 8.55768 4.41482C8.7944 3.22474 9.72469 2.29445 10.9148 2.05773C11.2076 1.99948 11.5355 1.99974 11.9162 2.00004C11.9438 2.00007 11.9718 2.00009 12 2.00009C12.0283 2.00009 12.0562 2.00007 12.0839 2.00004C12.4646 1.99974 12.7925 1.99948 13.0853 2.05773C14.2754 2.29445 15.2057 3.22474 15.4424 4.41482C15.5006 4.70767 15.5004 5.03551 15.5001 5.4162ZM13.5 5.50009C13.5 4.9875 13.4952 4.87725 13.4808 4.805C13.4019 4.40831 13.0918 4.09821 12.6951 4.0193C12.6229 4.00493 12.5126 4.00009 12 4.00009C11.4874 4.00009 11.3772 4.00493 11.3049 4.0193C10.9083 4.09821 10.5982 4.40831 10.5192 4.805C10.5049 4.87725 10.5 4.9875 10.5 5.50009L10.5 6.2831C10.5 6.43874 10.5006 6.46942 10.5025 6.49626C10.5123 6.63608 10.5513 6.77229 10.6171 6.89604C10.6298 6.91979 10.6455 6.94611 10.728 7.0781C11.1401 7.73739 11.2445 7.88811 11.3117 7.95192C11.6976 8.31802 12.3025 8.31802 12.6883 7.95192C12.7556 7.88811 12.86 7.73739 13.272 7.07809C13.3545 6.94611 13.3703 6.91979 13.3829 6.89604C13.4488 6.77229 13.4878 6.63608 13.4976 6.49626C13.4995 6.46942 13.5 6.43874 13.5 6.2831L13.5 5.50009Z" fill="white"/>
<path fill-rule="evenodd" clip-rule="evenodd" d="M5.41614 8.50004C5.44382 8.50007 5.47178 8.50009 5.50003 8.50009H6.28304C6.29111 8.50009 6.29912 8.50009 6.30707 8.50008C6.42573 8.50005 6.53028 8.50002 6.63574 8.5074C7.0552 8.53673 7.46381 8.65392 7.83507 8.85136C7.92841 8.901 8.01705 8.95644 8.11766 9.01935C8.12439 9.02357 8.13118 9.02781 8.13803 9.03209C8.17641 9.05608 8.21433 9.07973 8.25177 9.10307C8.73424 9.40395 9.13692 9.65506 9.4027 9.93518C10.501 11.0927 10.501 12.9075 9.4027 14.065C9.13692 14.3451 8.73424 14.5962 8.25177 14.8971C8.21433 14.9204 8.17641 14.9441 8.13803 14.9681C8.13118 14.9724 8.12439 14.9766 8.11765 14.9808C8.01705 15.0437 7.92841 15.0992 7.83507 15.1488C7.46381 15.3463 7.0552 15.4634 6.63574 15.4928C6.53027 15.5002 6.42572 15.5001 6.30705 15.5001C6.29911 15.5001 6.29111 15.5001 6.28304 15.5001H5.50003C5.47178 15.5001 5.44382 15.5001 5.41615 15.5001C5.03545 15.5004 4.70761 15.5007 4.41476 15.4424C3.22468 15.2057 2.29439 14.2754 2.05767 13.0854C1.99942 12.7925 1.99968 12.4647 1.99998 12.084C2 12.0563 2.00003 12.0283 2.00003 12.0001C2.00003 11.9718 2 11.9439 1.99998 11.9162C1.99968 11.5355 1.99942 11.2077 2.05767 10.9148C2.29439 9.72474 3.22468 8.79445 4.41476 8.55773C4.70761 8.49948 5.03545 8.49974 5.41614 8.50004ZM5.50003 10.5001C4.98744 10.5001 4.87718 10.5049 4.80494 10.5193C4.40825 10.5982 4.09815 10.9083 4.01924 11.305C4.00487 11.3772 4.00003 11.4875 4.00003 12.0001C4.00003 12.5127 4.00487 12.6229 4.01924 12.6952C4.09815 13.0919 4.40825 13.402 4.80494 13.4809C4.87718 13.4952 4.98744 13.5001 5.50003 13.5001H6.28304C6.43868 13.5001 6.46936 13.4995 6.4962 13.4977C6.63602 13.4879 6.77223 13.4488 6.89598 13.383C6.91973 13.3704 6.94605 13.3546 7.07803 13.2721C7.73733 12.86 7.88804 12.7556 7.95186 12.6884C8.31796 12.3025 8.31796 11.6976 7.95186 11.3118C7.88804 11.2445 7.73733 11.1401 7.07803 10.7281C6.94605 10.6456 6.91973 10.6298 6.89598 10.6172C6.77223 10.5514 6.63602 10.5123 6.4962 10.5025C6.46936 10.5006 6.43868 10.5001 6.28304 10.5001L5.50003 10.5001Z" fill="white"/>
<path fill-rule="evenodd" clip-rule="evenodd" d="M8.49998 18.5839C8.5 18.5562 8.50003 18.5283 8.50003 18.5L8.50003 17.717C8.50003 17.709 8.50002 17.7009 8.50002 17.693C8.49999 17.5743 8.49996 17.4698 8.50734 17.3643C8.53667 16.9449 8.65386 16.5362 8.8513 16.165C8.90094 16.0716 8.95638 15.983 9.0193 15.8824C9.02351 15.8757 9.02775 15.8689 9.03203 15.862C9.05601 15.8237 9.07966 15.7857 9.10301 15.7483C9.40388 15.2658 9.655 14.8631 9.93511 14.5974C11.0927 13.4991 12.9074 13.499 14.0649 14.5974C14.3451 14.8631 14.5962 15.2658 14.897 15.7483C14.9204 15.7857 14.944 15.8237 14.968 15.862C14.9723 15.8689 14.9765 15.8757 14.9808 15.8824C15.0437 15.983 15.0991 16.0717 15.1488 16.165C15.3462 16.5362 15.4634 16.9449 15.4927 17.3643C15.5001 17.4698 15.5001 17.5743 15.5 17.693C15.5 17.7009 15.5 17.7089 15.5 17.717L15.5 18.5C15.5 18.5283 15.5 18.5562 15.5001 18.5839C15.5004 18.9646 15.5006 19.2925 15.4424 19.5853C15.2057 20.7754 14.2754 21.7057 13.0853 21.9424C12.7924 22.0006 12.4646 22.0004 12.0839 22.0001C12.0562 22.0001 12.0283 22 12 22C11.9718 22 11.9438 22.0001 11.9161 22.0001C11.5354 22.0004 11.2076 22.0006 10.9148 21.9424C9.72468 21.7057 8.79439 20.7754 8.55767 19.5853C8.49942 19.2925 8.49968 18.9646 8.49998 18.5839ZM10.5 18.5C10.5 19.0126 10.5049 19.1229 10.5192 19.1951C10.5981 19.5918 10.9082 19.9019 11.3049 19.9808C11.3772 19.9952 11.4874 20 12 20C12.5126 20 12.6229 19.9952 12.6951 19.9808C13.0918 19.9019 13.4019 19.5918 13.4808 19.1951C13.4952 19.1229 13.5 19.0126 13.5 18.5L13.5 17.717C13.5 17.5614 13.4995 17.5307 13.4976 17.5039C13.4878 17.364 13.4487 17.2278 13.3829 17.1041C13.3703 17.0803 13.3545 17.054 13.272 16.922C12.86 16.2627 12.7556 16.112 12.6883 16.0482C12.3025 15.6821 11.6976 15.6821 11.3117 16.0482C11.2445 16.112 11.1401 16.2627 10.728 16.922C10.6455 17.054 10.6298 17.0803 10.6171 17.1041C10.5513 17.2278 10.5122 17.364 10.5025 17.5039C10.5006 17.5307 10.5 17.5614 10.5 17.717L10.5 18.5Z" fill="white"/>
</svg>

<svg width="24" height="24" fill="none" xmlns="http://www.w3.org/2000/svg"><path fill-rule="evenodd" clip-rule="evenodd" d="M18.584 15.5h-.891c-.119 0-.223 0-.329-.007a3 3 0 0 1-1.199-.344c-.093-.05-.182-.105-.283-.168l-.02-.013c-.038-.024-.076-.048-.114-.07-.482-.302-.885-.553-1.15-.833a3 3 0 0 1 0-4.13c.265-.28.668-.531 1.15-.832l.114-.071.02-.013c.101-.063.19-.118.283-.168a3 3 0 0 1 1.2-.344c.105-.007.21-.007.328-.007h.891c.38 0 .709 0 1.001.058a3 3 0 0 1 2.357 2.357c.059.293.058.62.058 1.001v.168c0 .38 0 .709-.058 1.001a3 3 0 0 1-2.357 2.357c-.293.059-.62.058-1.001.058zm-.084-2c.513 0 .623-.005.695-.02a1 1 0 0 0 .786-.785c.014-.072.019-.182.019-.695 0-.513-.005-.623-.02-.695a1 1 0 0 0-.785-.786c-.072-.014-.182-.019-.695-.019h-.783c-.156 0-.186 0-.213.002a1 1 0 0 0-.4.115c-.024.013-.05.028-.182.111-.66.412-.81.517-.874.584a1 1 0 0 0 0 1.376c.064.068.215.172.874.584.132.082.158.098.182.11.124.067.26.106.4.116.027.002.057.002.213.002h.783zm-3-8.084v.891c0 .119 0 .223-.007.329a3 3 0 0 1-.512 1.482l-.013.02-.071.114c-.3.482-.552.885-.832 1.15a3 3 0 0 1-4.13 0c-.28-.265-.531-.668-.832-1.15a162.77 162.77 0 0 0-.071-.114l-.013-.02c-.063-.1-.118-.19-.168-.283a3 3 0 0 1-.344-1.2C8.5 6.53 8.5 6.426 8.5 6.308V5.5v-.084c0-.38 0-.708.058-1.001a3 3 0 0 1 2.357-2.357c.293-.059.62-.058 1.001-.058a77.105 77.105 0 0 0 .168 0c.38 0 .709 0 1.001.058a3 3 0 0 1 2.357 2.357c.059.293.058.62.058 1.001zm-2 .084c0-.513-.005-.623-.02-.695a1 1 0 0 0-.785-.786C12.623 4.005 12.513 4 12 4c-.513 0-.623.005-.695.02a1 1 0 0 0-.786.785c-.014.072-.019.183-.019.695v.783c0 .156 0 .186.002.213a1 1 0 0 0 .115.4c.013.024.028.05.111.182.412.66.517.81.584.874a1 1 0 0 0 1.376 0c.068-.064.172-.215.584-.874.082-.132.098-.158.11-.182a.999.999 0 0 0 .116-.4c.002-.027.002-.057.002-.213V5.5zm-8.084 3h.891a3 3 0 0 1 1.528.351c.093.05.182.105.283.168l.02.013.114.071c.482.301.885.552 1.15.832a3 3 0 0 1 0 4.13c-.265.28-.668.531-1.15.832a62.39 62.39 0 0 0-.114.071l-.02.013c-.101.063-.19.118-.283.168a3 3 0 0 1-1.2.344c-.105.007-.21.007-.328.007h-.891c-.38 0-.708 0-1.001-.058a3 3 0 0 1-2.357-2.357c-.059-.293-.058-.62-.058-1.001V12v-.084c0-.38 0-.708.058-1.001a3 3 0 0 1 2.357-2.357c.293-.059.62-.058 1.001-.058zm.084 2c-.513 0-.623.005-.695.02a1 1 0 0 0-.786.785C4.005 11.377 4 11.488 4 12c0 .513.005.623.02.695a1 1 0 0 0 .785.786c.072.014.182.02.695.02h.783c.156 0 .186-.002.213-.003a1 1 0 0 0 .4-.115c.024-.013.05-.028.182-.11.66-.413.81-.517.874-.585a1 1 0 0 0 0-1.376c-.064-.067-.215-.172-.874-.584a3.552 3.552 0 0 0-.182-.11 1 1 0 0 0-.4-.116 3.595 3.595 0 0 0-.213-.002H5.5zm3 8.084v-.867-.024c0-.119 0-.223.007-.329a3 3 0 0 1 .344-1.199c.05-.093.105-.182.168-.283l.013-.02.071-.114c.3-.482.552-.885.832-1.15a3 3 0 0 1 4.13 0c.28.265.531.668.832 1.15l.071.114.013.02c.063.101.118.19.168.283a3 3 0 0 1 .351 1.528v.891c0 .38 0 .709-.058 1.001a3 3 0 0 1-2.357 2.357c-.293.059-.62.058-1.001.058h-.168c-.38 0-.708 0-1.001-.058a3 3 0 0 1-2.357-2.357c-.059-.293-.058-.62-.058-1.001zm2-.084c0 .513.005.623.02.695a1 1 0 0 0 .785.786c.072.014.182.019.695.019.513 0 .623-.005.695-.02a1 1 0 0 0 .786-.785c.014-.072.019-.182.019-.695v-.783c0-.156 0-.186-.002-.213a1 1 0 0 0-.115-.4 3.522 3.522 0 0 0-.111-.182c-.412-.66-.516-.81-.584-.874a1 1 0 0 0-1.376 0c-.067.064-.172.215-.584.874a3.612 3.612 0 0 0-.11.182.998.998 0 0 0-.116.4 3.528 3.528 0 0 0-.002.213v.783z" fill="#fff"/></svg>
